X:5102
T:Fasten the Leggin'
M:6/8
L:1/8
K:G Major
c|B3 BAB|GBd gdB|A3 AGA|Bee dBA|!
B3 BAB|GBd g3|efg fag|fdd d2:|!
f|g3 f3|ege dBA|GFG AGA|Bee def|!
g3 f3|ege d^cd|efg eag|fdd d2:|!
